{ "compressionlevel":-1,
 "height":2,
 "infinite":false,
 "layers":[
        {
         "data":[4, 27, 28, 29, 30, 31, 32,
            8, 51, 52, 53, 54, 55, 56],
         "height":2,
         "id":1,
         "name":"Tile Layer 1",
         "opacity":1,
         "type":"tilelayer",
         "visible":true,
         "width":7,
         "x":0,
         "y":0
        }],
 "nextlayerid":2,
 "nextobjectid":1,
 "orientation":"orthogonal",
 "renderorder":"right-down",
 "tiledversion":"1.10.2",
 "tileheight":16,
 "tilesets":[
        {
         "firstgid":1,
         "source":"Amelia_idle_16x16.tsx"
        }, 
        {
         "firstgid":9,
         "source":"Amelia_run_16x16.tsx"
        }],
 "tilewidth":16,
 "type":"map",
 "version":"1.10",
 "width":7
}